X:33
T:Avant deux de CARQUEFOU
R:Avant deux
Z: YVES BELOTTEAU
Z: Yves BELOTTEAU
M:4/4
L:1/8
Q:1/4=120
K:G 
|DGGF EFD2|DAAB/2A/2 GABG|DGGF EFD2|DAAB/2A/2|
GFG2 DAAB/2A/2|GABG DAAB/2A/2|GFG2 DAAB/2A/2|GABG DAAB/2A/2|
GFG2|
K:C
|aaa2 ggf2|ee/2d/2eg fefd|aaa2 ggf2|ee/2d/2eg|
fed2 ee/2d/2eg|fefd ee/2d/2eg|fed2 ee/2d/2eg|fefd ee/2d/2eg|
fed2|
|cded cB/2A/2G2|cdee/2e/2 d2g2|cded cB/2A/2G2|cdee/2e/2|
d2c2 gg/2g/2ff|gf/2e/2d2 gg/2g/2ff|g2d2 gg/2g/2ff|gf/2e/2d2 gg/2g/2ff|
g2d2|
